!!!!SEGMENT: pl-wtm--r-71-n--006_noskowski-zygmunt--powrot-suita-krakowiakow-allegro-marcato.krn
!!!cenid: 18xx:2116
!!!COM: Noskowski, Zygmunt
!!!COM-rismid: pe106604
!!!CDT: 1846/05/02-1909/07/23
!!!CNT: Polish
!!!OPR: Powrót - Suita krakowiaków
!!!OTL: Allegro marcato
!!!OMV: 006
!!!PDT: 1894
!!!AGN: Secular
!!!SMS-siglum: PL-Wtm
!!!SMS-shelfmark: R 71/N
!!!SMS-shelfwork: 001-006 M
!!!SMS-variant:
!!!SMS-altvar:
!!!NIFC-rismid: 1001096000
!!!URL-scan: http://repozytorium.nifc.pl/skany/pl-wtm-nut--r71n
!!!ONB-nifc: UWAGA: Numeracja krakowiaków zgodna z kolejnością źródłową (I-VIII)
!!!AIN: 1 alto 3 empty 1 soprn 1 tenor
!!!key:
**kern	**kern	**dynam	**kern	**kern	**dynam	**kern	**dynam	**kern	**dynam	**kern	**dynam	**kern	**text	**dynam
*part6	*part6	*part6	*part5	*part5	*part5	*part4	*part4	*part3	*part3	*part2	*part2	*part1	*part1	*part1
*staff8	*staff7	*	*staff6	*staff5	*	*staff4	*	*staff3	*	*staff2	*	*staff1	*staff1	*
*Iempty	*Iempty	*	*Iempty	*Iempty	*	*Iempty	*	*Itenor	*	*Ialto	*	*Isoprn	*	*
*I"2do	*I"2do	*	*I"Io	*I"Io	*	*I"B.	*	*I"Ten	*	*I"Alt	*	*I"Sop	*	*
*clefF4	*clefF4	*	*clefG2	*clefG2	*	*clefF4	*	*clefGv2	*	*clefG2	*	*clefG2	*	*
*k[b-e-]	*k[b-e-]	*	*k[b-e-]	*k[b-e-]	*	*k[b-e-]	*	*k[b-e-]	*	*k[b-e-]	*	*k[b-e-]	*	*
*>[A,B,B,C]	*>[A,B,B,C]	*	*>[A,B,B,C]	*>[A,B,B,C]	*	*>[A,B,B,C]	*	*>[A,B,B,C]	*	*>[A,B,B,C]	*	*>[A,B,B,C]	*	*
*B-:	*B-:	*	*B-:	*B-:	*	*B-:	*	*B-:	*	*B-:	*	*B-:	*	*
*M2/4	*M2/4	*	*M2/4	*M2/4	*	*M2/4	*	*M2/4	*	*M2/4	*	*M2/4	*	*
=1	=1	=1	=1	=1	=1	=1	=1	=1	=1	=1	=1	=1	=1	=1
*>A	*>A	*	*>A	*>A	*	*>A	*	*>A	*	*>A	*	*>A	*	*
!	!LO:TX:a:i:t=Allegro marcato	!	!	!LO:TX:a:i:t=Allegro marcato	!	!	!	!	!	!	!	!LO:TX:a:B:t=Allegro marcato	!	!
!	!	!LO:DY:rj	!	!	!LO:DY:rj	!	!	!	!	!	!	!	!	!
2r	[2B-\ [2F\ [2BB-^^\	ff	[2b-/ [2f^^/	[2fff\ [2bb-\ [2ff^^\	ff	2r	.	2r	.	2r	.	2r	.	.
=2	=2	=2	=2	=2	=2	=2	=2	=2	=2	=2	=2	=2	=2	=2
8GG/L 8GGG^^/	2B-\] 2F\] 2BB-\]	.	2b-/] 2f/]	2fff\] 2bb-\] 2ff\]	.	2r	.	2r	.	2r	.	2r	.	.
8FF/J 8FFF^^/	.	.	.	.	.	.	.	.	.	.	.	.	.	.
4FF/ 4FFF^^/	.	.	.	.	.	.	.	.	.	.	.	.	.	.
=3	=3	=3	=3	=3	=3	=3	=3	=3	=3	=3	=3	=3	=3	=3
2r	[2B-\ [2F\ [2BB-^^\	.	[2b-/ [2f^^/	[2fff\ [2bb-\ [2ff^^\	.	2r	.	2r	.	2r	.	2r	.	.
=4	=4	=4	=4	=4	=4	=4	=4	=4	=4	=4	=4	=4	=4	=4
8GG/L 8GGG^^/	2B-\] 2F\] 2BB-\]	.	2b-/] 2f/]	2fff\] 2bb-\] 2ff\]	.	2r	.	2r	.	2r	.	2r	.	.
8FF/J 8FFF^^/	.	.	.	.	.	.	.	.	.	.	.	.	.	.
4FF/ 4FFF^^/	.	.	.	.	.	.	.	.	.	.	.	.	.	.
=5	=5	=5	=5	=5	=5	=5	=5	=5	=5	=5	=5	=5	=5	=5
4r	2B-\ 2F\ 2BB-^^\	.	2b-/ 2f^^/	2fff\ 2bb-\ 2ff^^\	.	2r	.	2r	.	2r	.	2r	.	.
4GG/ 4GGG^^/	.	.	.	.	.	.	.	.	.	.	.	.	.	.
=6	=6	=6	=6	=6	=6	=6	=6	=6	=6	=6	=6	=6	=6	=6
*	*rep	*	*rep	*rep	*	*	*	*	*	*	*	*	*	*
4r	2B-\ 2F\ 2BB-^^\	.	2b-/ 2f^^/	2fff\ 2bb-\ 2ff^^\	.	2r	.	2r	.	2r	.	2r	.	.
4FF/ 4FFF^^/	.	.	.	.	.	.	.	.	.	.	.	.	.	.
*	*Xrep	*	*Xrep	*Xrep	*	*	*	*	*	*	*	*	*	*
=7	=7	=7	=7	=7	=7	=7	=7	=7	=7	=7	=7	=7	=7	=7
8r	4B-\ 4F\ 4BB-^^\	.	4b-/ 4f^^/	4fff\ 4bb-\ 4ff^^\	.	2r	.	2r	.	2r	.	2r	.	.
8GG/ 8GGG^^/	.	.	.	.	.	.	.	.	.	.	.	.	.	.
8r	4B-\ 4F\ 4BB-^^\	.	4b-/ 4f^^/	4fff\ 4bb-\ 4ff^^\	.	.	.	.	.	.	.	.	.	.
8FF/ 8FFF^^/	.	.	.	.	.	.	.	.	.	.	.	.	.	.
=8	=8	=8	=8	=8	=8	=8	=8	=8	=8	=8	=8	=8	=8	=8
8r	4B-\ 4F\ 4BB-^^\	.	4b-/ 4f^^/	4fff\ 4bb-\ 4ff^^\	.	4r	.	4r	.	4r	.	4r	.	.
8GG/ 8GGG^^/	.	.	.	.	.	.	.	.	.	.	.	.	.	.
8r	8B-\L 8F\ 8BB-^^\	.	8b-/L 8f^^/	8fff\L 8bb-\ 8ff^^\	.	8r	.	8r	.	8r	.	8r	.	.
*	*	*	*	*	*	*	*above	*	*above	*	*above	*	*	*
!	!	!	!	!	!	!	!LO:DY:rj	!	!LO:DY:rj	!	!LO:DY:rj	!	!	!LO:DY:rj
8FF/ 8FFF^^/	8B-\J 8F\ 8BB-^^\	.	8f^^/J	8ff^^\J	.	8F\	ff	8F/	ff	8f/	ff	8f/	Z wo-	ff
=9	=9	=9	=9	=9	=9	=9	=9	=9	=9	=9	=9	=9	=9	=9
4BB-/ 4BBB-^^/	4d\ 4B-\ 4F\ 4D^^\	.	8.b-/L 8.f^^/	8.bb-\L 8.ff\ 8.dd^^\	.	8.BB-/	.	8.F/	.	8.d/	.	8.b-/	-jen-	.
.	.	.	16a/Jk	16aa\Jk	.	16B-\	.	16d\	.	16f/	.	16a/	-ki	.
8BB-/L 8BBB-/	8d\L 8B-\ 8F\	.	8b-/L 8f/	8bb-\L 8ff\ 8dd\	.	8B-\	.	8d\	.	8f/	.	8b-\	tej	.
8BB-/J 8BBB-/	8d\J 8B-\ 8F\	.	8b-/J 8f/	8ddd\J 8dd\	.	8B-\	.	8d\	.	8f/	.	8dd\	po-	.
!!LO:LB:g=original
=10	=10	=10	=10	=10	=10	=10	=10	=10	=10	=10	=10	=10	=10	=10
8BB-/ 8BBB-/	8d\ 8B-\ 8F\	.	8dd/ 8b-/ 8f/	8ddd\ 8bb-\ 8ff\	.	8B-\	.	8d\	.	8b-\	.	8ff\	-ro-	.
4BB-/ 4BBB-^^/	4e-\ 4B-\ 4G^^\	.	4ee-/ 4b-/ 4g^^/	4ggg\ 4bb-\ 4gg^^\	.	4B-\	.	4e-\	.	4b-\	.	4gg\	-ku	.
8r	8e-\ 8B-\ 8G\	.	8ee-/ 8b-/ 8g/	8eee-\ 8bb-\ 8gg\	.	8B-\	.	8e-\	.	8g/	.	8ee-\	Wró-	.
=11	=11	=11	=11	=11	=11	=11	=11	=11	=11	=11	=11	=11	=11	=11
4BB-/ 4BBB-^^/	4d\ 4B-\ 4F\ 4D^^\	.	8.dd/L 8.b-/ 8.f/	8.ddd\L 8.bb-\ 8.ff^^\	.	8.B-\	.	8.f\	.	8.b-\	.	8.dd\	-ci-	.
.	.	.	16ff/Jk	16fff\Jk	.	16B-\	.	16d\	.	16b-\	.	16ff\	-li	.
8BB-/L 8BBB-/	8c\L 8B-\ 8E-\	.	8ee-/L 8g/	8eee-\L 8gg\	.	8B-\	.	8c\	.	8g/	.	8ee-\	do	.
8BB-/J 8BBB-/	8e-\J 8B-\ 8E-\	.	8cc/J 8a/	8ccc\J 8aa\	.	8B-\	.	8e-\	.	8a/	.	8cc\	wsi	.
=12	=12	=12	=12	=12	=12	=12	=12	=12	=12	=12	=12	=12	=12	=12
8BB-/ 8BBB-/	8d\ 8B-\ 8F\	.	8b-\	8bb-\	.	8B-\	.	8d\	.	8f/	.	8b-\	zu-	.
4BB-/ 4BBB-^^/	4d\ 4B-\ 4F^^\	.	4f^^/	4ff\ 4dd^^\	.	4B-\	.	4d\	.	4f/	.	4f/	-chy,	.
8D/ 8DD/	8B-\ 8F\	.	8dd/ 8f/	8ddd\ 8ff\	.	8D\	.	8B-\	.	8f/	.	8dd\	Hej	.
=13	=13	=13	=13	=13	=13	=13	=13	=13	=13	=13	=13	=13	=13	=13
4F/ 4FF^^/	4c\ 4A^^\	.	8.cc/L 8.f^^/	8.ccc\L 8.ff^^\	.	8.F\	.	8.A/	.	8.f/	.	8.cc\	ra-	.
.	.	.	16ee-/Jk	16eee-\Jk	.	16A\	.	16c\	.	16f/	.	16ee-\	-dość	.
8BB-/L 8BBB-'/	8d\L 8B-\ 8F\	.	8dd/L 8f/	8ddd\L 8ff\	.	8B-\	.	8d\	.	8f/	.	8dd\	w każ-	.
8BB-/J 8BBB-'/	8d\J 8B-\ 8F\	.	8b-/J 8f/	8bb-\J 8ff\	.	8B-\	.	8d\	.	8f/	.	8b-\	-dem	.
=14	=14	=14	=14	=14	=14	=14	=14	=14	=14	=14	=14	=14	=14	=14
(8AA/L 8AAA/	4e-\ 4c\ 4F\	.	(8cc/L 8f/	(8ccc\L 8ff\	.	(8A\L	.	(8e-\L	.	(8f/L	.	(8cc\L	o-	.
8FF/J 8FFF/)	.	.	8ff/J)	8fff\J)	.	8F\J)	.	8c\J)	.	8a/J)	.	8ff\J)	.	.
8BB-/L 8BBB-'/	8d\L 8B-\ 8F\	.	8dd/L 8f/	8ddd\L 8ff'\	.	8B-\	.	8d\	.	8f/	.	8dd\	-ku,	.
8BB-/J 8BBB-'/	8d\J 8B-\ 8F\	.	8b-/J 8f/	8bb-\J 8ff'\	.	8B-\	.	8d\	.	8f/	.	8b-\	Hej	.
=15	=15	=15	=15	=15	=15	=15	=15	=15	=15	=15	=15	=15	=15	=15
8.AA/L 8.AAA^^/	4c\ 4F^^\	.	8.cc/L 8.f^^/	8.ccc\L 8.ff^^\	.	8.A\	.	8.c\	.	8.f/	.	8.cc\	śmie-	.
16FF/Jk 16FFF/	.	.	16ee-/Jk	16eee-\Jk	.	16F\	.	16f\	.	16a/	.	16ee-\	-ją	.
8BB-/L 8BBB-/	8d\L 8B-\ 8F\	.	8dd\L	8ddd\L	.	8B-\	.	8f\	.	8b-/	.	8dd\	się	.
8BB-/J 8BBB-/	8d\J 8B-\ 8F\	.	8b-\J	8bb-\J	.	8B-\	.	8d\	.	8f/	.	8b-\	dzie-	.
!!LO:PB:g=original
=16	=16	=16	=16	=16	=16	=16	=16	=16	=16	=16	=16	=16	=16	=16
8AA/ 8AAA/	8c\ 8F\	.	8cc/ 8f/	8fff\ 8ff\	.	8A\	.	8c\	.	8f/	.	8ff\	-wu-	.
4FF/ 4FFF^^/	4e-\ 4A\ 4F^^\	.	4cc/ 4a/ 4f^^/	4ff\ 4ee-^^\	.	4A\	.	4c\	.	4e-/	.	4f/	-chy!	.
8FF/	8F\	.	8f/	8ff\	.	8F\	.	8f\	.	8f/	.	8f/	Do	.
=17	=17	=17	=17	=17	=17	=17	=17	=17	=17	=17	=17	=17	=17	=17
4BB-/ 4BBB-^^/	4d\ 4B-\ 4F\ 4D^^\	.	8.b-/L 8.f/ 8.d^^/	8.bb-\L 8.ff\ 8.dd^^\	.	8.B-\	.	8.d\	.	8.f/	.	8.b-/	karcz-	.
.	.	.	16a/Jk	16aa\Jk	.	16B-\	.	16d\	.	16f/	.	16a/	-my	.
8BB-/L 8BBB-/	8d\L 8B-\ 8F\	.	8b-/L 8f/	8bb-\L 8ff\ 8dd\	.	8B-\	.	8d\	.	8f/	.	8b-\	wciąż	.
8BB-/J 8BBB-/	8d\J 8B-\ 8F\	.	8b-/J 8f/	8ddd\J 8dd\	.	8B-\	.	8d\	.	8f/	.	8dd\	gro-	.
=18	=18	=18	=18	=18	=18	=18	=18	=18	=18	=18	=18	=18	=18	=18
8BB-/ 8BBB-/	8d\ 8B-\ 8F\	.	8dd/ 8b-/ 8f/	8fff\ 8ff\	.	8B-\	.	8d\	.	8b-\	.	8ff\	-ma-	.
4GG/ 4GGG^^/	4d\ 4B-\ 4G^^\	.	4dd/ 4b-/ 4g^^/	4ggg\ 4gg^^\	.	4G\	.	4d\	.	4b-\	.	4gg\	-da	.
8AA/ 8AAA/	8e-\ 8c\ 8F\	.	8cc/ 8f/	8eee-\ 8ee-\	.	8A\	.	8f\	.	8cc\	.	8ee-\	A	.
=19	=19	=19	=19	=19	=19	=19	=19	=19	=19	=19	=19	=19	=19	=19
8.BB-/L 8.BBB-^^/	8.d\L 8.B-\ 8.F^^\	.	8.b-/L 8.f^^/	8.ddd\L 8.dd^^\	.	8.B-\	.	8.f\	.	8.b-\	.	8.dd\	tło-	.
16D/Jk 16DD/	16d\Jk 16B-\ 16F\	.	16b-/Jk 16f/	16fff\Jk 16ff\	.	16D\	.	16B-\	.	16f/	.	16ff\	-czy	.
8E-/L 8EE-/	8B-\L 8G\	.	8b-/L 8g/	8eee-\L 8ee-\	.	8E-\	.	8B-\	.	8g/	.	8ee-\	się,	.
8F/J 8FF/	8A\J	.	8a/J 8e-/	8ccc\J 8cc\	.	8F\	.	8A/	.	8e-/	.	8cc\	a	.
=20	=20	=20	=20	=20	=20	=20	=20	=20	=20	=20	=20	=20	=20	=20
8BB-/ 8BBB-/	8d\ 8B-\	.	8b-/ 8f/	8bb-\	.	8BB-/	.	8B-\	.	8d/	.	8b-/	tło-	.
4BB-^^/	4d\ 4B-^^\	.	4f^^/	4ff^^\	.	4B-\	.	4d\	.	4f/	.	4f/	-czy..	.
8G/ 8GG/	8en\ 8B-\	.	8dd\	8ddd\	.	8G\	.	8B-\	.	8en/	.	8dd\	Hej,	.
=21	=21	=21	=21	=21	=21	=21	=21	=21	=21	=21	=21	=21	=21	=21
4A/ 4AA^^/	4f\ 4c^^\	.	8.cc^^\L	8.ccc^^\L	.	8.A\	.	8.c\	.	8.f/	.	8.cc\	każ-	.
.	.	.	16ee-\Jk	16eee-\Jk	.	16A\	.	16c\	.	16f/	.	16ee-\	-da	.
8F/L 8FF/	8f\L 8A\	.	8dd\L	8ddd\L	.	8F\	.	8A/	.	8f/	.	8dd\	swe-	.
8F/J 8FF/	8f\J 8A\	.	8cc\J	8ccc\J	.	8F\	.	8A/	.	8f/	.	8cc\	-mu	.
!!LO:LB:g=original
=22	=22	=22	=22	=22	=22	=22	=22	=22	=22	=22	=22	=22	=22	=22
8BB-/L	8f\L 8d\ 8B-\	.	8dd\L	8ddd\L	.	8B-\	.	8B-\	.	8f/	.	8dd\	ra-	.
8BB-/J 8BBB-/	8f\J 8d\ 8B-\ 8A-X\	.	8b-\J	8bb-\J	.	8B-\	.	8d\	.	8a-X/	.	8b-\	-da,	.
*	*	*	*	*8va	*	*	*	*	*	*	*	*	*	*
8E-/L 8EE-^^/	[4g\ [4e-\ [>4B-\ [4G^^\	.	[4gg\ [4ee-\ [4b-^^\	[4ggg\ [4eee-\ [4bb-^^\	.	[4E-\	.	[4e-\	.	[4g/	.	[4gg\	Hej,	.
8BB-/J 8BBB-^^/	.	.	.	.	.	.	.	.	.	.	.	.	.	.
=23	=23	=23	=23	=23	=23	=23	=23	=23	=23	=23	=23	=23	=23	=23
*tremolo	*	*	*	*	*	*	*	*	*	*	*	*	*	*
32EEE-/LLL	2g\_ 2e-\_ 2B-\_> 2G\_	.	2gg\_ 2ee-\_ 2b-\_	2ggg\_ 2eee-\_ 2bb-\_	.	2E-\_	.	2e-\_	.	2g/_	.	2gg\_	.	.
32EE-/	.	.	.	.	.	.	.	.	.	.	.	.	.	.
32EEE-/	.	.	.	.	.	.	.	.	.	.	.	.	.	.
32EE-/	.	.	.	.	.	.	.	.	.	.	.	.	.	.
32EEE-/	.	.	.	.	.	.	.	.	.	.	.	.	.	.
32EE-/	.	.	.	.	.	.	.	.	.	.	.	.	.	.
32EEE-/	.	.	.	.	.	.	.	.	.	.	.	.	.	.
32EE-/	.	.	.	.	.	.	.	.	.	.	.	.	.	.
32EEE-/	.	.	.	.	.	.	.	.	.	.	.	.	.	.
32EE-/	.	.	.	.	.	.	.	.	.	.	.	.	.	.
32EEE-/	.	.	.	.	.	.	.	.	.	.	.	.	.	.
32EE-/	.	.	.	.	.	.	.	.	.	.	.	.	.	.
32EEE-/	.	.	.	.	.	.	.	.	.	.	.	.	.	.
32EE-/	.	.	.	.	.	.	.	.	.	.	.	.	.	.
32EEE-/	.	.	.	.	.	.	.	.	.	.	.	.	.	.
32EE-/JJJ	.	.	.	.	.	.	.	.	.	.	.	.	.	.
*Xtremolo	*	*	*	*	*	*	*	*	*	*	*	*	*	*
=24	=24	=24	=24	=24	=24	=24	=24	=24	=24	=24	=24	=24	=24	=24
8EE-/ 8EEE-^^/	8g\] 8e-\] 8B-\] 8G\]	.	8gg\] 8ee-\] 8b-\]	8ggg\] 8eee-\] 8bb-\]	.	8E-\]	.	8e-\]	.	8g/]	.	8gg\]	.	.
8r	8r	.	8r	8r	.	8r	.	8r	.	8r	.	8r	.	.
4E-/ 4EE-^^/	4e-\ 4B-\ 4G^^\	.	4gg\ 4ee-^^\	4ggg\ 4eee-^^\	.	4E-\	.	4B-\	.	4g/	.	4gg\	hej,	.
=25	=25	=25	=25	=25	=25	=25	=25	=25	=25	=25	=25	=25	=25	=25
8C/L 8CC/	8e-\L 8B-\ 8G\	.	8g/L	8gg/L	.	8C/	.	8B-\	.	8g/	.	8g/	w ta-	.
8C/J 8CC/	8e-\J 8B-\ 8G\	.	8ee-/J 8g/	8eee-/J 8gg/	.	8C/	.	8B-\	.	8g/	.	8ee-\	-niec	.
8.FF/L 8.FFF^^/	8.d\L 8.A\ 8.F^^\	.	8.dd/L 8.a/ 8.f^^/	8.ddd/L 8.aa/ 8.ff^^/	.	8.F^^\	.	8.A^^/	.	8.f^^/	.	8.dd^^\	z nim	.
16FF/Jk 16FFF/	16c\Jk 16A\ 16E-\	.	16cc/Jk 16a/ 16e-/	16ccc/Jk 16aa/ 16ee-/	.	16F\	.	16e-\	.	16a/	.	16cc\	po-	.
=26	=26	=26	=26	=26	=26	=26	=26	=26	=26	=26	=26	=26	=26	=26
8BB-/ 8BBB-/	8d\ 8B-\ 8D\	.	8b-/ 8f/	8ddd/ 8bb-/ 8dd/	.	8BB-/	.	8d\	.	8b-\	.	8dd\	-sko-	.
4BB-/ 4BBB-^^/	4d\ 4B-\ 4F^^\	.	4b-/ 4f^^/	4bb-/ 4ff/ 4dd^^/	.	4B-^^\	.	4d^^\	.	4f^^/	.	4b-^^\	-czy!	.
8r	8r	.	8r	8r	.	8r	.	8r	.	8r	.	8r	.	.
=27!|:	=27!|:	=27!|:	=27!|:	=27!|:	=27!|:	=27!|:	=27!|:	=27!|:	=27!|:	=27!|:	=27!|:	=27!|:	=27!|:	=27!|:
*>B	*>B	*	*>B	*>B	*	*>B	*	*>B	*	*>B	*	*>B	*	*
4FF/ 4FFF^^/	4f\ 4A\ 4F^^\	.	8r	8r	.	2r	.	2r	.	2r	.	2r	.	.
.	.	f	(16ff\LL	(16fff\LL	f	.	.	.	.	.	.	.	.	.
.	.	.	16een\JJ	16eeen\JJ	.	.	.	.	.	.	.	.	.	.
4C/ 4FF^^/	4en\ 4A\ 4F^^\	.	16cc\LL	16ccc\LL	.	.	.	.	.	.	.	.	.	.
.	.	.	16ee\	16eee\	.	.	.	.	.	.	.	.	.	.
.	.	.	16cc\	16ccc\	.	.	.	.	.	.	.	.	.	.
.	.	.	16a\JJ)	16aa\JJ)	.	.	.	.	.	.	.	.	.	.
=28	=28	=28	=28	=28	=28	=28	=28	=28	=28	=28	=28	=28	=28	=28
!	!	!	!	!	!	!	!LO:DY:rj	!	!LO:DY:rj	!	!LO:DY:rj	!	!	!LO:DY:rj
2FF/ 2FFF^^/	8d\ 8B-\ 8F\	.	(16cc\LL	(16ccc\LL	.	8F\	f	8d\	f	8f/	f	(16cc\LL	Hej,	f
.	.	.	16b-\	16bb-\	.	.	.	.	.	.	.	16b-\JJ)	.	.
.	4B-\ 4F\ 4D^^\	.	16dd\	16ddd\	.	4F^^\	.	4B-^^\	.	4f^^/	.	4dd^^\	graj-	.
.	.	.	16a\JJ	16aa\JJ	.	.	.	.	.	.	.	.	.	.
.	.	.	16cc/LL	16ccc/LL	.	.	.	.	.	.	.	.	.	.
.	.	.	16b-/	16bb-/	.	.	.	.	.	.	.	.	.	.
.	8B-\ 8F\ 8D\	.	16d/	16dd/	.	8F\	.	8B-\	.	8f/	.	8dd\	-ku,	.
.	.	.	16f/JJ)	16ff/JJ)	.	.	.	.	.	.	.	.	.	.
!!LO:PB:g=original
=29	=29	=29	=29	=29	=29	=29	=29	=29	=29	=29	=29	=29	=29	=29
2FF/ 2FFF/	4B-\ 4En\ 4C\	.	(16en/LL	(<16een/LL	.	4r	.	4r	.	4r	.	4r	.	.
.	.	.	16f/	16ff/	.	.	.	.	.	.	.	.	.	.
.	.	.	16g/	16gg/	.	.	.	.	.	.	.	.	.	.
.	.	.	16a/JJ	16aa/JJ	.	.	.	.	.	.	.	.	.	.
.	8B-\L 8G\ 8C\	.	16b-/LL	16bb-/LL	.	8F\	.	8B-\	.	8en/	.	8b-\	na	.
.	.	.	16a/	16aa/	.	.	.	.	.	.	.	.	.	.
.	8B-\J 8E\ 8C\	.	16g/	16gg/	.	8F\	.	8B-\	.	8e/	.	8g/	stół	.
.	.	.	16b-/JJ	16bb-/JJ	.	.	.	.	.	.	.	.	.	.
=30	=30	=30	=30	=30	=30	=30	=30	=30	=30	=30	=30	=30	=30	=30
4FF/ 4FFF/	8A\ 8F\ 8C\	.	8dd'\L)	8ddd'\L)	.	8F\	.	8A/	.	8f/	.	8dd\	żwa-	.
.	4c\ 4A\ 4F^^\	.	(16cc\L	(16ccc\L	.	4F\	.	4A/	.	4f/	.	4cc\	-wo,	.
.	.	.	16ff\JJ	16fff\JJ	.	.	.	.	.	.	.	.	.	.
8C/ 8FF^^/	.	.	16aa\LL	16aaa\LL	.	.	.	.	.	.	.	.	.	.
.	.	.	16gg\J	16ggg\J	.	.	.	.	.	.	.	.	.	.
8r	8r	.	8ff\J)	8fff'\J)	.	8r	.	8r	.	8r	.	8r	.	.
=31	=31	=31	=31	=31	=31	=31	=31	=31	=31	=31	=31	=31	=31	=31
4D/ 4DD^^/	4f\ 4A\ 4F^^\	.	8r	8r	.	2r	.	2r	.	2r	.	2r	.	.
.	.	.	(16ff\LL	(16fff\LL	.	.	.	.	.	.	.	.	.	.
.	.	.	16een\JJ	16eeen\JJ	.	.	.	.	.	.	.	.	.	.
4AA/ 4DD^^/	4en\ 4A\ 4F^^\	.	16cc#X\LL	16ccc#X\LL	.	.	.	.	.	.	.	.	.	.
.	.	.	16ee\	16eee\	.	.	.	.	.	.	.	.	.	.
.	.	.	16dd\	16ddd\	.	.	.	.	.	.	.	.	.	.
.	.	.	16a\JJ)	16aa\JJ)	.	.	.	.	.	.	.	.	.	.
=32	=32	=32	=32	=32	=32	=32	=32	=32	=32	=32	=32	=32	=32	=32
8GG/	8d\ 8B-\ 8G\	.	(16ccn\LL	(16cccn\LL	.	8G\	.	8d\	.	8g/	.	(16cc\LL	Rżnij	.
.	.	.	16b-\JJ)	16bb-\JJ)	.	.	.	.	.	.	.	16b-\JJ)	.	.
4GG^^/	4d\ 4B-\ 4G^^\	.	4dd^^\	4ddd^^\	.	4G\	.	4B-\	.	4g/	.	4dd\	smy-	.
8F/ 8FF/	8d\ 8Bn\ 8G\	.	(16een\LL	(16eeen\LL	.	8F\	.	8Bn\	.	8g/	.	8dd\	-kiem,	.
.	.	.	16ff\JJ	16fff\JJ	.	.	.	.	.	.	.	.	.	.
=33	=33	=33	=33	=33	=33	=33	=33	=33	=33	=33	=33	=33	=33	=33
4En/ 4EEn/	8r	.	8aa\L)	8aaa\L)	.	4r	.	4r	.	4r	.	4r	.	.
.	8c\ 8B-X\ 8G\	.	(16gg\L	(16ggg\L	.	.	.	.	.	.	.	.	.	.
.	.	.	16ff\JJ	16fff\JJ	.	.	.	.	.	.	.	.	.	.
4C/ 4CC/	8r	.	8een\L)	8eeen\L)	.	8C/	.	8B-X\	.	8en/	.	8cc\	wal	.
.	8en\ 8B-\ 8G\	.	8gg'\J	8ggg'\J	.	8C/	.	8B-\	.	8g/	.	8een\	w cym-	.
=34	=34	=34	=34	=34	=34	=34	=34	=34	=34	=34	=34	=34	=34	=34
4C/ 4FF/	4f\ 4A\ 4F\	.	(16ff\LL	(16fff\LL	.	8F\	.	8A/	.	8f/	.	8ff\	-ba-	.
.	.	.	16een\	16eeen\	<	.	.	.	.	.	.	.	.	.
.	.	.	16cc\	16ccc\	.	8F\	.	8A/	.	8f/	.	8f/	-ły!	.
.	.	.	16dd\JJ	16ddd\JJ	.	.	.	.	.	.	.	.	.	.
8r	8r	.	16ee-X\LL	16eee-X\LL	.	8r	.	8r	.	8r	.	8r	.	.
.	.	.	16ff\	16fff\	.	.	.	.	.	.	.	.	.	.
!	!	!	!	!	!	!	!LO:DY:rj	!	!LO:DY:b:rj	!	!LO:DY:b:rj	!	!	!LO:DY:rj
8C/ 8FF/	8e-X\ 8A\ 8F\	ff	16gg\	16ggg\	[	8F\	ff	8e-\	ff	8f/	ff	8f/	Hej,	ff
.	.	.	16ff\JJ)	16aaa\JJ)	.	.	.	.	.	.	.	.	.	.
!!LO:LB:g=original
=35	=35	=35	=35	=35	=35	=35	=35	=35	=35	=35	=35	=35	=35	=35
4BB-/ 4BBB-/	8d\L 8B-\ 8F\	.	8.b-/L	8.bbb-\L 8.bb-\	ff	8.B-\	.	8.d\	.	8.f/	.	8.b-\	graj-	.
.	8d\J 8B-\ 8F\	.	.	.	.	.	.	.	.	.	.	.	.	.
.	.	.	16a/Jk	16aaa\Jk 16aa\	.	16B-\	.	16d\	.	16f/	.	16a/	-ku,	.
4GG/ 4GGG/	8r	.	8b-\L	8bbb-\L 8bb-\	.	8G\	.	8d\	.	8g/	.	8b-\	na	.
.	8d\ 8B-\ 8G\	.	8dd\J	8dddd\J 8ddd\	.	8G\	.	8B-\	.	8g/	.	8dd\	stół	.
=36	=36	=36	=36	=36	=36	=36	=36	=36	=36	=36	=36	=36	=36	=36
8D/ 8DD/	8f\ 8B-\ 8F\	.	8ff\	8ffff\ 8fff\	.	8D\	.	8B-\	.	8f/	.	8ff\	żwa-	.
4C/ 4CC^>/	4en\ 4B-\ 4G^\	.	4gg^\	4gggg\ 4ggg^<\	.	4C/	.	4B-\	.	4en/	.	4gg\	-wo,	.
8C/ 8CC/	8g\ 8e\ 8B-\ 8G\	.	8een\	8eeeen\ 8eeen\	.	8C/	.	8B-\	.	8g/	.	8een\	Rżnij	.
=37	=37	=37	=37	=37	=37	=37	=37	=37	=37	=37	=37	=37	=37	=37
4D/ 4DD/	8f\L 8B-\ 8F\	.	8.dd\L	8.dddd\L 8.ddd\	.	8.D\	.	8.B-\	.	8.f/	.	8.dd\	smy-	.
.	8d\J 8B-\ 8F\	.	.	.	.	.	.	.	.	.	.	.	.	.
.	.	.	16ff\Jk	16ffff\Jk 16fff\	.	16D\	.	16B-\	.	16f/	.	16ff\	-kiem,	.
4GG/ 4GGG/	8c\L 8B-\ 8En\	.	8een\L	8eeeen\L 8eeen\	.	8G\	.	8c\	.	8b-\	.	8een\	wal	.
.	8c\J 8B-\ 8E\	.	8cc\J	8cccc\J 8ccc\	.	8G\	.	8B-\	.	8en/	.	8cc\	w cym-	.
=38	=38	=38	=38	=38	=38	=38	=38	=38	=38	=38	=38	=38	=38	=38
4.BB-/ 4.BBB-/	8d\ 8B-\ 8F\	.	8b-/	8bbb-\ 8bb-\	.	8B-\	.	8d\	.	8f/	.	8b-\	-ba-	.
.	4d\ 4B-\ 4F^\	.	4f^/	4fff\ 4ff^\	.	4B-\	.	4d\	.	4f/	.	4f/	-ły!	.
8G\ 8GG\	8en\ 8B-\	.	8dd\	8dddd\ 8ddd\	.	8G\	.	8B-\	.	8en/	.	8dd\	Szedł	.
=39	=39	=39	=39	=39	=39	=39	=39	=39	=39	=39	=39	=39	=39	=39
4A\ 4AA^^\	4f\ 4c^^\	.	8.cc^^\L	8.cccc\L 8.ccc^^\	.	8.A\	.	8.c\	.	8.f/	.	8.cc\	ta-	.
.	.	.	16ee-X\Jk	16eeee-X\Jk 16eee-X\	.	16A\	.	16c\	.	16f/	.	16ee-X\	-niec	.
8F/L 8FF/	8f\L 8A\	.	8dd\L	8dddd\L 8ddd\	.	8F\	.	8A/	.	8f/	.	8dd\	w le-	.
8F/J 8FF/	8f\J 8e-X\ 8A\	.	8cc\J	8cccc\J 8ccc\	.	8F\	.	8A/	.	8f/	.	8cc\	-wo,	.
!!LO:PB:g=original
=40	=40	=40	=40	=40	=40	=40	=40	=40	=40	=40	=40	=40	=40	=40
8BB-/L	8f\L 8d\ 8B-\	.	8dd\L	8dddd\L 8ddd\	.	8B-\	.	8B-\	.	8f/	.	8dd\	w pra-	.
8BB-/J 8BBB-/	8f\J 8d\ 8B-\ 8A-X\	.	8b-\J	8bbb-\J 8bb-\	.	8B-\	.	8d\	.	8a-X/	.	8b-\	-wo,	.
8E-/L 8EE-^^/	[4g\ [4e-\ [4B-\ [4G^^\	.	[4gg\ [4ee-\ [4b-^^\	[4gggg\ [4eeee-\ [4bbb-\ [4ggg^<\	.	[4E-\	.	[4e-\	.	[4g/	.	[4gg\	Hej,	.
8BB-/J 8BBB-^^/	.	.	.	.	.	.	.	.	.	.	.	.	.	.
=41	=41	=41	=41	=41	=41	=41	=41	=41	=41	=41	=41	=41	=41	=41
*tremolo	*	*	*	*	*	*	*	*	*	*	*	*	*	*
32EEE-/LLL	2g\_ 2e-\_ 2B-\_ 2G\_	.	2gg\_ 2ee-\_ 2b-\_	2gggg\_ 2eeee-\_ 2bbb-\_ 2ggg\_	.	2E-\_	.	2e-\_	.	2g/_	.	2gg\_	.	.
32EE-/	.	.	.	.	.	.	.	.	.	.	.	.	.	.
32EEE-/	.	.	.	.	.	.	.	.	.	.	.	.	.	.
32EE-/	.	.	.	.	.	.	.	.	.	.	.	.	.	.
32EEE-/	.	.	.	.	.	.	.	.	.	.	.	.	.	.
32EE-/	.	.	.	.	.	.	.	.	.	.	.	.	.	.
32EEE-/	.	.	.	.	.	.	.	.	.	.	.	.	.	.
32EE-/	.	.	.	.	.	.	.	.	.	.	.	.	.	.
32EEE-/	.	.	.	.	.	.	.	.	.	.	.	.	.	.
32EE-/	.	.	.	.	.	.	.	.	.	.	.	.	.	.
32EEE-/	.	.	.	.	.	.	.	.	.	.	.	.	.	.
32EE-/	.	.	.	.	.	.	.	.	.	.	.	.	.	.
32EEE-/	.	.	.	.	.	.	.	.	.	.	.	.	.	.
32EE-/	.	.	.	.	.	.	.	.	.	.	.	.	.	.
32EEE-/	.	.	.	.	.	.	.	.	.	.	.	.	.	.
32EE-/JJJ	.	.	.	.	.	.	.	.	.	.	.	.	.	.
*Xtremolo	*	*	*	*	*	*	*	*	*	*	*	*	*	*
=42	=42	=42	=42	=42	=42	=42	=42	=42	=42	=42	=42	=42	=42	=42
8EE-/ 8EEE-^^/	8g\] 8e-\] 8B-\] 8G\]	.	8gg\] 8ee-\] 8b-\]	8gggg\] 8eeee-\] 8bbb-\] 8ggg\]	.	8E-\]	.	8e-\]	.	8g/]	.	8gg\]	.	.
8r;	8r;	.	8r;	8r;	.	8r;	.	8r;	.	8r;	.	8r;	.	.
4E-/ 4EE-^^/	4g\ 4e-\ 4B-\ 4G^^\	.	4gg\ 4ee-^\	4gggg\ 4eeee-\ 4ggg^\	.	4E-\	.	4e-\	.	4g/	.	4gg\	Z pod-	.
=43	=43	=43	=43	=43	=43	=43	=43	=43	=43	=43	=43	=43	=43	=43
8C/L 8CC/	8g\L 8e-\ 8B-\ 8G\	.	8gg\L	8ggg\L	.	8C/	.	8B-\	.	8g/	.	8g/	-kó-	.
8C/J 8CC/	8g\J 8e-\ 8B-\ 8G\	.	8ee-\J	8eeee-\J 8eee-\	.	8C/	.	8B-\	.	8g/	.	8ee-\	-wek	.
8.F/L 8.FF^^/	8.f\L 8.d\ 8.A^^\	.	8.dd^^\L	8.dddd\L 8.ddd^^\	.	8.F\	.	8.A/	.	8.f/	.	8.dd\	skry	.
16F/Jk 16FF/	16e-\Jk 16c\ 16A\	.	16cc\Jk	16cccc\Jk 16ccc\	.	16F\	.	16e-\	.	16a/	.	16cc\	le-	.
=44	=44	=44	=44	=44	=44	=44	=44	=44	=44	=44	=44	=44	=44	=44
8BB-/ 8BBB-/	8d\ 8B-\	.	8ff\	8ffff\ 8fff\	.	8BB-/	.	8d\	.	8b-\	.	8ff\	-cia-	.
4BB-/ 4BBB-^^/	4d\ 4B-\ 4F^^\	.	4b-^^\	4bbb-\ 4bb-^^\	.	4B-^^\	.	4d^^\	.	4f^^/	.	4b-^^\	-ły!...	.
8r	8r	.	8r	8r	.	8r	.	8r	.	8r	.	8r	.	.
=45:|!	=45:|!	=45:|!	=45:|!	=45:|!	=45:|!	=45:|!	=45:|!	=45:|!	=45:|!	=45:|!	=45:|!	=45:|!	=45:|!	=45:|!
*>C	*>C	*	*>C	*>C	*	*>C	*	*>C	*	*>C	*	*>C	*	*
8BB-/ 8FF/ 8BBB-/	8d\ 8B-\ 8F\ 8D\	sfz	8ff/ 8dd/ 8b-/ 8f/	8bbb-\ 8fff\ 8ddd\ 8bb-\	sfz	2r	.	2r	.	2r	.	2r	.	.
8r	8r	.	8r	8r	.	.	.	.	.	.	.	.	.	.
*	*	*	*	*X8va	*	*	*	*	*	*	*	*	*	*
4r	4r	.	4r	4r	.	.	.	.	.	.	.	.	.	.
==	==	==	==	==	==	==	==	==	==	==	==	==	==	==
*-	*-	*-	*-	*-	*-	*-	*-	*-	*-	*-	*-	*-	*-	*-
!!!system-decoration: {{(s1,s2,s3,s4)}{(s5,s6)}{(s7,s8)}}
!!!RDF**kern: > = above
!!!RDF**kern: < = below
!!!EED: Andrzej Borzym
!!!EEV: 2021-05-30
!!!ENC: Mateusz Solarz
!!!END: 2021-05-11
